build/finance/TreasuryOutline.svg

<svg xmlns="http://www.w3.org/2000/svg" fill="none" viewBox="0 0 24 24" focusable="false"><path d="M0 0H24V24H0z"/><path fill="#74767B" fill-rule="evenodd" d="M12 13.4186C15.1531 13.4186 17.7093 10.8625 17.7093 7.70932C17.7093 4.55615 15.1531 2 12 2C8.8468 2 6.29065 4.55615 6.29065 7.70932C6.29065 10.8625 8.8468 13.4186 12 13.4186ZM12 12.1186C14.4352 12.1186 16.4093 10.1445 16.4093 7.70932C16.4093 5.27412 14.4352 3.3 12 3.3C9.56477 3.3 7.59065 5.27412 7.59065 7.70932C7.59065 10.1445 9.56477 12.1186 12 12.1186ZM12.8645 8.24582L11.5842 8.24582L11.5842 8.84949L12.8366 8.84949C13.1956 8.84949 13.4866 9.1405 13.4866 9.49949C13.4866 9.85847 13.1956 10.1495 12.8366 10.1495L11.5842 10.1495L11.5842 10.466C11.5842 10.825 11.2931 11.116 10.9342 11.116C10.5752 11.116 10.2842 10.825 10.2842 10.466L10.2842 10.1495L9.85087 10.1495C9.49188 10.1495 9.20087 9.85847 9.20087 9.49949C9.20087 9.1405 9.49188 8.84949 9.85087 8.84949L10.2842 8.84949L10.2842 8.24582L9.8645 8.24582C9.50551 8.24582 9.2145 7.9548 9.2145 7.59582C9.2145 7.23683 9.50551 6.94582 9.8645 6.94582L10.2842 6.94582L10.2842 5.62465C10.2842 5.09954 10.7099 4.6748 11.2342 4.6748L12.8645 4.6748C13.8506 4.6748 14.65 5.4742 14.65 6.46031C14.65 7.44642 13.8506 8.24582 12.8645 8.24582ZM11.5842 6.94582L11.5842 5.9748L12.8645 5.9748C13.1327 5.9748 13.35 6.19217 13.35 6.46031C13.35 6.72845 13.1327 6.94582 12.8645 6.94582L11.5842 6.94582ZM6.24839 16.7094L7.77658 14.9461C8.84113 15.5644 10.0547 15.9544 11.3503 16.0491C11.3501 16.0558 11.35 16.0625 11.35 16.0693L11.35 17.9457C11.35 18.3046 11.641 18.5957 12 18.5957C12.359 18.5957 12.65 18.3046 12.65 17.9457L12.65 16.0693C12.65 16.0609 12.6498 16.0526 12.6495 16.0443C13.9776 15.9372 15.218 15.5196 16.2981 14.8642L17.7515 16.5413C17.9867 16.8126 18.3972 16.8419 18.6684 16.6068C18.9397 16.3717 18.9691 15.9612 18.734 15.6899L16.9815 13.6678C16.9664 13.645 16.9496 13.6229 16.9313 13.6017C16.6985 13.3322 16.2939 13.3027 16.0018 13.5065C14.8585 14.3039 13.4681 14.7716 11.9684 14.7716C10.5315 14.7716 9.19478 14.3422 8.07971 13.6047C7.80539 13.4233 7.43998 13.4429 7.20752 13.664C7.15196 13.6981 7.10062 13.7411 7.05568 13.7929L5.26598 15.858C5.03088 16.1293 5.06021 16.5398 5.33149 16.7749C5.60278 17.01 6.01329 16.9807 6.24839 16.7094ZM5.41232 18.6507C5.41232 19.3687 4.83029 19.9507 4.11232 19.9507C3.39435 19.9507 2.81232 19.3687 2.81232 18.6507C2.81232 17.9327 3.39435 17.3507 4.11232 17.3507C4.83029 17.3507 5.41232 17.9327 5.41232 18.6507ZM19.888 19.9507C20.606 19.9507 21.188 19.3687 21.188 18.6507C21.188 17.9327 20.606 17.3507 19.888 17.3507C19.17 17.3507 18.588 17.9327 18.588 18.6507C18.588 19.3687 19.17 19.9507 19.888 19.9507ZM13.3 20.7C13.3 21.418 12.718 22 12 22C11.282 22 10.7 21.418 10.7 20.7C10.7 19.9821 11.282 19.4 12 19.4C12.718 19.4 13.3 19.9821 13.3 20.7Z"/></svg>

<svg xmlns="http://www.w3.org/2000/svg" fill="none" viewBox="0 0 24 24" focusable="false"><path fill="#74767B" fill-rule="evenodd" d="M12 13.41a5.7 5.7 0 0 0 5.7-5.71C17.7 4.55 15.15 2 12 2a5.7 5.7 0 0 0-5.71 5.7c0 3.16 2.55 5.71 5.71 5.71m0-1.3c2.43 0 4.4-1.97 4.4-4.41A4.4 4.4 0 0 0 12 3.3c-2.44 0-4.41 1.97-4.41 4.4 0 2.44 1.97 4.41 4.41 4.41m.86-3.87h-1.28v.6h1.25c.36 0 .65.3.65.65 0 .36-.29.65-.65.65h-1.25v.32c0 .36-.29.65-.65.65s-.65-.29-.65-.65v-.32h-.43c-.36 0-.65-.29-.65-.65 0-.35.29-.65.65-.65h.43v-.6h-.42c-.36 0-.65-.29-.65-.65s.29-.65.65-.65h.42V5.62c0-.53.42-.95.95-.95h1.63a1.786 1.786 0 1 1 0 3.57m-1.28-1.3v-.97h1.28c.27 0 .49.22.49.49 0 .26-.22.48-.49.48zM6.24 16.7l1.53-1.76a8.25 8.25 0 0 0 3.58 1.1v1.9c0 .36.29.65.65.65.35 0 .65-.29.65-.65v-1.88s-.01-.01-.01-.02c1.33-.11 2.57-.53 3.65-1.18l1.46 1.68c.23.27.64.3.91.06.27-.23.3-.64.07-.92l-1.75-2.02a.3.3 0 0 1-.05-.06.706.706 0 0 0-.93-.1c-1.15.8-2.54 1.27-4.04 1.27-1.43 0-2.77-.43-3.89-1.17a.706.706 0 0 0-.87.06c-.05.03-.1.08-.15.13l-1.79 2.06c-.23.27-.2.68.07.92s.68.21.91-.07m-.83 1.95c0 .71-.58 1.3-1.3 1.3s-1.3-.59-1.3-1.3c0-.72.58-1.3 1.3-1.3s1.3.58 1.3 1.3m14.47 1.3c.72 0 1.3-.59 1.3-1.3 0-.72-.58-1.3-1.3-1.3-.71 0-1.3.58-1.3 1.3 0 .71.59 1.3 1.3 1.3m-6.58.75c0 .71-.59 1.3-1.3 1.3-.72 0-1.3-.59-1.3-1.3 0-.72.58-1.3 1.3-1.3.71 0 1.3.58 1.3 1.3"/></svg>
